dist/images/icons/icon-heart.svg

<svg width="18" height="15" viewBox="0 0 18 15" fill="none" xmlns="http://www.w3.org/2000/svg">
<mask id="mask0_205_7" style="mask-type:luminance" maskUnits="userSpaceOnUse" x="0" y="0" width="18" height="15">
<path d="M0.149918 0.575012H17.3571V14.8292H0.149918V0.575012Z" fill="white"/>
</mask>
<g mask="url(#mask0_205_7)">
<mask id="mask1_205_7" style="mask-type:luminance" maskUnits="userSpaceOnUse" x="0" y="0" width="18" height="15">
<path d="M0.876505 2.85088C-0.513416 5.02713 0.466011 7.14509 1.69643 8.26921L8.89169 14.8292L15.9352 8.29278C17.0797 7.0835 17.5185 5.80071 17.2747 4.37243C16.9384 2.39641 15.2249 0.863707 13.1081 0.644713C11.81 0.511897 10.5561 0.860919 9.57718 1.63374C9.31392 1.84183 9.0784 2.07426 8.87329 2.32696C8.62976 2.03928 8.34436 1.77618 8.02136 1.54274C6.89576 0.729877 5.46317 0.407215 4.08711 0.658146C2.78361 0.897418 1.61374 1.69634 0.876505 2.85088Z" fill="white"/>
</mask>
<g mask="url(#mask1_205_7)">
<path d="M0.196716 0.575195H17.3396V14.8293H0.196716V0.575195Z" fill="white"/>
</g>
</g>
</svg>

<svg width="18" height="15" fill="none" xmlns="http://www.w3.org/2000/svg"><mask id="mask0_205_7" style="mask-type:luminance" maskUnits="userSpaceOnUse" x="0" y="0" width="18" height="15"><path d="M.15.575h17.207v14.254H.15V.575z" fill="#fff"/></mask><g mask="url(#mask0_205_7)"><mask id="mask1_205_7" style="mask-type:luminance" maskUnits="userSpaceOnUse" x="0" y="0" width="18" height="15"><path d="M.877 2.85c-1.39 2.177-.411 4.295.82 5.42l7.195 6.56 7.043-6.537c1.145-1.21 1.583-2.492 1.34-3.92-.337-1.977-2.05-3.51-4.167-3.728-1.298-.133-2.552.216-3.53.989-.264.208-.5.44-.705.693a4.785 4.785 0 00-.852-.784A5.165 5.165 0 004.087.658C2.784.898 1.614 1.696.877 2.851z" fill="#fff"/></mask><g mask="url(#mask1_205_7)"><path d="M.197.575H17.34V14.83H.197V.575z" fill="#fff"/></g></g></svg>
